FINK
CUT[ALS EINST DER MENSCH IM PARADIES]
REG[Europa, Mitteleuropa, Deutschland]
KEY[F0094  16  C 4/4]
MEL[-5_  1__3__2__.1_  -7_1_2__0__
    3__  2_.22_1_-7__-6__  -5__-5__-5__0_
    -7_  2__.2_2__.3_  4__3__2_
    4_3_2_  1__0_2_-7_.-71__  0___.0_ //] >>
FCT[Scherz -, Spott - Lied]
